Newaita/actions/16/format-indent-less.svg

<?xml version="1.0" encoding="UTF-8"?>
<svg xmlns="http://www.w3.org/2000/svg" xmlns:xlink="http://www.w3.org/1999/xlink" width="16pt" height="16pt" viewBox="0 0 16 16" version="1.1">
<g id="surface1">
<path style=" stroke:none;fill-rule:nonzero;fill:rgb(25.882354%,25.882354%,25.882354%);fill-opacity:1;" d="M 14.140625 2.109375 L 1.738281 2.109375 C 1.507812 2.109375 1.324219 2.257812 1.324219 2.441406 L 1.324219 2.769531 C 1.324219 2.953125 1.507812 3.101562 1.738281 3.101562 L 14.140625 3.101562 C 14.367188 3.101562 14.554688 2.953125 14.554688 2.769531 L 14.554688 2.441406 C 14.554688 2.257812 14.367188 2.109375 14.140625 2.109375 Z M 14.140625 2.109375 "/>
<path style=" stroke:none;fill-rule:nonzero;fill:rgb(25.882354%,25.882354%,25.882354%);fill-opacity:1;" d="M 10.296875 5.746094 L 1.613281 5.746094 C 1.453125 5.746094 1.324219 5.894531 1.324219 6.078125 L 1.324219 6.410156 C 1.324219 6.59375 1.453125 6.738281 1.613281 6.738281 L 10.296875 6.738281 C 10.453125 6.738281 10.585938 6.59375 10.585938 6.410156 L 10.585938 6.078125 C 10.585938 5.894531 10.453125 5.746094 10.296875 5.746094 Z M 10.296875 5.746094 "/>
<path style=" stroke:none;fill-rule:nonzero;fill:rgb(25.882354%,25.882354%,25.882354%);fill-opacity:1;" d="M 10.296875 13.023438 L 1.613281 13.023438 C 1.453125 13.023438 1.324219 13.171875 1.324219 13.355469 L 1.324219 13.6875 C 1.324219 13.867188 1.453125 14.015625 1.613281 14.015625 L 10.296875 14.015625 C 10.453125 14.015625 10.585938 13.867188 10.585938 13.6875 L 10.585938 13.355469 C 10.585938 13.171875 10.453125 13.023438 10.296875 13.023438 Z M 10.296875 13.023438 "/>
<path style=" stroke:none;fill-rule:nonzero;fill:rgb(25.882354%,25.882354%,25.882354%);fill-opacity:1;" d="M 10.296875 9.386719 L 1.613281 9.386719 C 1.453125 9.386719 1.324219 9.535156 1.324219 9.71875 L 1.324219 10.046875 C 1.324219 10.230469 1.453125 10.378906 1.613281 10.378906 L 10.296875 10.378906 C 10.453125 10.378906 10.585938 10.230469 10.585938 10.046875 L 10.585938 9.71875 C 10.585938 9.535156 10.453125 9.386719 10.296875 9.386719 Z M 10.296875 9.386719 "/>
<path style=" stroke:none;fill-rule:evenodd;fill:rgb(14.901961%,77.64706%,85.490197%);fill-opacity:1;" d="M 14.222656 7.566406 C 14.40625 7.566406 14.554688 7.714844 14.554688 7.898438 L 14.554688 11.867188 C 14.554688 12.117188 14.285156 12.277344 14.0625 12.15625 L 11.742188 10.171875 C 11.492188 9.964844 11.492188 9.800781 11.742188 9.59375 L 14.0625 7.609375 C 14.113281 7.582031 14.167969 7.566406 14.222656 7.566406 Z M 14.222656 7.566406 "/>
</g>
</svg>

<svg xmlns="http://www.w3.org/2000/svg" width="16pt" height="16pt" viewBox="0 0 16 16"><path d="M14.14 2.11H1.739c-.23 0-.414.148-.414.331v.329c0 .183.184.332.414.332h12.403c.226 0 .414-.149.414-.332V2.44c0-.183-.188-.332-.414-.332zm0 0M10.297 5.746H1.613c-.16 0-.289.149-.289.332v.332c0 .184.13.328.29.328h8.683c.156 0 .289-.144.289-.328v-.332c0-.183-.133-.332-.29-.332zm0 0M10.297 13.023H1.613c-.16 0-.289.149-.289.332v.332c0 .18.13.329.29.329h8.683c.156 0 .289-.149.289-.329v-.332c0-.183-.133-.332-.29-.332zm0 0M10.297 9.387H1.613c-.16 0-.289.148-.289.332v.328c0 .183.13.332.29.332h8.683c.156 0 .289-.149.289-.332v-.328c0-.184-.133-.332-.29-.332zm0 0" fill="#424242"/><path d="M14.223 7.566c.183 0 .332.149.332.332v3.97c0 .25-.27.41-.492.288l-2.32-1.984c-.25-.207-.25-.371 0-.578l2.32-1.985a.34.34 0 0 1 .16-.043zm0 0" fill-rule="evenodd" fill="#26c6da"/></svg>
